icon-themes/breeze_svg/cmd/sc_beziersmooth.svg

<svg viewBox="0 0 16 16" xmlns="http://www.w3.org/2000/svg"><path d="m7 3.15625c-2.7585001.880728-4.8781047 5.3658661-5 10.84375h1c.1098518-4.8398876 1.8014167-8.8264207 4-9.78125zm2 0v1.0625c2.198583.9548293 3.890148 4.9413624 4 9.78125h1c-.121895-5.4778839-2.2415-9.963022-5-10.84375z" fill="#4d4d4d"/><path d="m6.5 2v3h3v-3zm1 1h1v1h-1z" fill="#1d99f3"/></svg>

<svg xmlns="http://www.w3.org/2000/svg" viewBox="0 0 16 16">
 <path 
     style="fill:#4d4d4d" 
     d="M 7 3.15625 C 4.2414999 4.036978 2.1218953 8.5221161 2 14 L 3 14 C 3.1098518 9.1601124 4.8014167 5.1735793 7 4.21875 L 7 3.15625 z M 9 3.15625 L 9 4.21875 C 11.198583 5.1735793 12.890148 9.1601124 13 14 L 14 14 C 13.878105 8.5221161 11.7585 4.036978 9 3.15625 z "
     />
 <path 
     style="fill:#1d99f3" 
     d="M 6.5 2 L 6.5 5 L 9.5 5 L 9.5 2 L 6.5 2 z M 7.5 3 L 8.5 3 L 8.5 4 L 7.5 4 L 7.5 3 z "
     />
 </svg>
